svg/S VL.svg

<?xml version="1.0" encoding="UTF-8" standalone="no"?>
<svg
   width="128px"
   height="128px"
   viewBox="0 0 128 128"
   version="1.1"
   id="svg14"
   sodipodi:docname="S VL.svg"
   xml:space="preserve"
   inkscape:version="1.2 (dc2aedaf03, 2022-05-15)"
   xmlns:inkscape="http://www.inkscape.org/namespaces/inkscape"
   xmlns:sodipodi="http://sodipodi.sourceforge.net/DTD/sodipodi-0.dtd"
   xmlns="http://www.w3.org/2000/svg"
   xmlns:svg="http://www.w3.org/2000/svg"><defs
     id="defs18" /><sodipodi:namedview
     id="namedview16"
     pagecolor="#ffffff"
     bordercolor="#666666"
     borderopacity="1.0"
     inkscape:showpageshadow="2"
     inkscape:pageopacity="0.0"
     inkscape:pagecheckerboard="0"
     inkscape:deskcolor="#d1d1d1"
     showgrid="true"
     inkscape:zoom="8.0234375"
     inkscape:cx="64.062317"
     inkscape:cy="64"
     inkscape:window-width="1546"
     inkscape:window-height="1229"
     inkscape:window-x="1368"
     inkscape:window-y="124"
     inkscape:window-maximized="0"
     inkscape:current-layer="svg14"><inkscape:grid
       type="xygrid"
       id="grid882" /></sodipodi:namedview><rect
     y="0"
     x="0"
     height="128"
     width="128"
     id="rect842"
     style="fill:#ffffff;fill-opacity:0;stroke:none" /><path
     style="fill:none;stroke:#000000;stroke-width:7.99733;stroke-linecap:round;stroke-linejoin:round;stroke-miterlimit:4;stroke-opacity:1"
     d="m 77.000005,78.730476 v 32.542964 c 0,7.02734 -5.699218,12.72656 -12.72656,12.72656 h -0.546887 c -7.027342,0 -12.72656,-5.69922 -12.72656,-12.72656 V 78.730476 c 0,-7.03125 5.699218,-12.730468 12.72656,-12.730468 h 0.546887 c 7.027342,0 12.72656,5.699218 12.72656,12.730468 z m 0,0"
     id="path3" /><path
     style="fill:#000000;fill-opacity:1;fill-rule:nonzero;stroke:#ffffff;stroke-width:3.99867;stroke-linecap:round;stroke-linejoin:round;stroke-miterlimit:4;stroke-opacity:1"
     d="M 77.000005,78.933599 V 111.06641 C 77.000005,118.21095 71.210942,124 64.066414,124 h -0.13281 c -7.144535,0 -12.933598,-5.78905 -12.933598,-12.93359 V 78.933599 c 0,-7.140627 5.789063,-12.933591 12.933598,-12.933591 h 0.13281 c 7.144528,0 12.933591,5.792964 12.933591,12.933591 z m 0,0"
     id="path5" /><path
     style="fill:#00ff00;fill-opacity:1;fill-rule:nonzero;stroke:none"
     d="m 64,84 c -2.757812,0 -4.996094,-2.238281 -4.996094,-4.996094 0,-2.761718 2.238282,-4.996094 4.996094,-4.996094 2.757812,0 4.996094,2.234376 4.996094,4.996094 C 68.996094,81.761719 66.757812,84 64,84 Z m 0,0"
     id="path7" /><path
     style="fill:#333333;fill-opacity:1;fill-rule:nonzero;stroke:none"
     d="m 64,100 c -2.757812,0 -4.996094,-2.234375 -4.996094,-4.996094 0,-2.757812 2.238282,-4.996094 4.996094,-4.996094 2.757812,0 4.996094,2.238282 4.996094,4.996094 C 68.996094,97.765625 66.757812,100 64,100 Z m 0,0"
     id="path9" /><path
     style="fill:#333333;fill-opacity:1;fill-rule:nonzero;stroke:none"
     d="m 64,115.99609 c -2.757812,0 -4.996094,-2.23828 -4.996094,-4.99609 0,-2.75781 2.238282,-4.99609 4.996094,-4.99609 2.757812,0 4.996094,2.23828 4.996094,4.99609 0,2.75781 -2.238282,4.99609 -4.996094,4.99609 z m 0,0"
     id="path11" /></svg>

<svg xmlns="http://www.w3.org/2000/svg" xml:space="preserve" width="128" height="128"><path fill="none" d="M0 0h128v128H0z" style="fill:#fff;fill-opacity:0;stroke:none"/><path d="M77 78.73v32.543C77 118.301 71.3 124 64.273 124h-.546C56.699 124 51 118.3 51 111.273V78.73C51 71.7 56.7 66 63.727 66h.546C71.301 66 77 71.7 77 78.73zm0 0" style="fill:none;stroke:#000;stroke-width:7.99733;stroke-linecap:round;stroke-linejoin:round;stroke-miterlimit:4;stroke-opacity:1"/><path d="M77 78.934v32.132C77 118.211 71.21 124 64.066 124h-.132C56.789 124 51 118.211 51 111.066V78.934C51 71.793 56.79 66 63.934 66h.132C71.211 66 77 71.793 77 78.934zm0 0" style="fill:#000;fill-opacity:1;fill-rule:nonzero;stroke:#fff;stroke-width:3.99867;stroke-linecap:round;stroke-linejoin:round;stroke-miterlimit:4;stroke-opacity:1"/><path d="M64 84a4.995 4.995 0 1 1-.001-9.993A4.995 4.995 0 0 1 64 84Zm0 0" style="fill:#0f0;fill-opacity:1;fill-rule:nonzero;stroke:none"/><path d="M64 100a4.995 4.995 0 1 1-.001-9.99A4.995 4.995 0 0 1 64 100ZM64 115.996A4.998 4.998 0 0 1 59.004 111 4.998 4.998 0 0 1 64 106.004 4.998 4.998 0 0 1 68.996 111 4.998 4.998 0 0 1 64 115.996zm0 0" style="fill:#333;fill-opacity:1;fill-rule:nonzero;stroke:none"/></svg>
